!!!COM: Robert Schumann
!!!CNT: Deutsch
!!!TXO: Deutsch
!!!OTL: Erstes Gru2n
!!!LYR: Kerner
!!!OPR: Ausgewa2hlte Lieder
!!!OPS: Op. 35
!!!ONM: No. 4
!!!ENC: Ben Fuhrman
!!!YOR: Schumann Lieder - Max Friedlaender, ed.,
!!!YOR: New York: C. F. Peters, Vol. 1
!!!ODT: 1840/
!!NB: Vocal melody and text only encoded.
!!NB: First instance of melodic material only encoded.
**kern	**silbe
*clefG2	*
*k[b-e-]	*
*M2/4	*
!!created: 5/19/06 10:04
!!proofed and posted: 5/19/06 10:04
!!edit time: 24 minutes
=1	=1
4r	.
8r	.
{8dd	{Du
=2	=2
8.dd	jun-
16b-	-ges
8g	Gru2n,
8a	du
=3	=3
8.b-	fri-
16g	-sches
8d}	Gras!}
{8f#	{wie
=4	=4
8g	man-
8a	-ches
8b-	Herz
(16dd	durch
16cc)	|
=5	=5
8.b-	dich
16a	ge-
4a}	-nas,}
=6	=6
{8a	{das
16a	von
16a	des
8a	Win-
8b-	-ters
=7	=7
8a	Schnee
8b-	er-
4a}	-krankt}
=8	=8
{8g	{o
16g	wie
16dd	mein
8.dd	Herz
16cc	nach
=9	=9
8b-	dir
8a	ver-
4g}	-langt!}
!! rest to measure 14
=14	=14
4r	.
8r	.
{8dd	{Schon
=15	=15
8.dd	wa2chst
16b-	du
8g	aus
8a	der
=16	=16
8.b-	Er-
16g	-de
8d}	Nacht,}
{8f#	{wie
=17	=17
8g	dir
8a	mein
8b-	Aug'
(16dd	ent-
16cc)	|
=18	=18
8.b-	-ge-
16a	-gen
4a}	lacht!}
=19	=19
{8a	{Hier
16a	in
16a	des
8a	Wal-
8b-	-des
=20	=20
8a	stil-
8b-	-lem
4a}	Grund}
=21	=21
{8g	{dru2ck'
16g	ich
16dd	dich,
8.dd	Gru2n,
16cc	an
=22	=22
8b-	Herz
8a	und
4g}	Mund.}
!! rest to measure 27
=27	=27
4r	.
8r	.
{8dd	{Wie
=28	=28
8.dd	treibt's
16b-	mich
8g	von
8a	den
=29	=29
8.b-	Men-
16g	-schen
8d}	fort!}
{8f#	{Mein
=30	=30
8g	Leid
8a	das
8b-	hebt
(16dd	kein
16cc)	|
=31	=31
8.b-	Men-
16a	-schen-
8a}	-wort;}
{8a	{nur
=32	=32
8.a	jun-
16a	-ges
8a	Gru2n,
8b-	ans
=33	=33
(8a	Herz
16b-)	|
16b-	ge-
4a}	-legt,}
=34	=34
{8g	{macht,
16g	dass
16dd	mein
8.dd	Her-
16cc	-ze
=35	=35
8.b-	stil-
16a	-ler
4g}	schla2gt.}
==	==
*-	*-
